public/img/assets/icons/weather-conditions/thunder-showers-night.svg

<svg width="120" height="120" viewBox="0 0 120 120" fill="none" xmlns="http://www.w3.org/2000/svg">
<path fill-rule="evenodd" clip-rule="evenodd" d="M58 17.7364C65.4272 21.6849 70.4844 29.5019 70.4844 38.5C70.4844 47.4981 65.4272 55.3151 58 59.2636C61.2856 61.0103 65.035 62 69.0156 62C81.9943 62 92.5156 51.4787 92.5156 38.5C92.5156 25.5213 81.9943 15 69.0156 15C65.035 15 61.2856 15.9897 58 17.7364Z" fill="#D580FF"/>
<path d="M83.1875 49.6C83.0949 49.6 83.0178 49.6306 82.9406 49.6306C83.1103 48.8344 83.1875 48.0075 83.1875 47.15C83.1875 40.3819 77.6637 34.9 70.8438 34.9C67.048 34.9 63.6998 36.6303 61.4316 39.31C58.5617 33.7975 52.8373 30 46.1563 30C36.6053 30 28.875 37.6716 28.875 47.15C28.875 48.2678 28.9984 49.3397 29.199 50.3963C23.2895 52.3256 19 57.7922 19 64.3C19 72.4156 25.6348 79 33.8125 79H83.1875C91.3652 79 98 72.4156 98 64.3C98 56.1844 91.3652 49.6 83.1875 49.6Z" fill="#FF99FF"/>
<path fill-rule="evenodd" clip-rule="evenodd" d="M89.0462 50.7956C87.2491 50.0263 85.2682 49.6 83.1875 49.6C83.1391 49.6 83.0949 49.6084 83.0528 49.6164C83.0143 49.6237 82.9774 49.6306 82.9406 49.6306C83.1104 48.8344 83.1875 48.0075 83.1875 47.15C83.1875 40.3819 77.6637 34.9 70.8438 34.9C70.632 34.9 70.4217 34.9054 70.2128 34.916C70.3916 36.0846 70.4844 37.2815 70.4844 38.5C70.4844 47.4981 65.4272 55.3151 58 59.2636C61.2856 61.0103 65.035 62 69.0156 62C77.4868 62 84.911 57.5178 89.0462 50.7956Z" fill="#9966FF"/>
<path d="M78 82.2222V70L69 85.7778H78V98L87 82.2222H78Z" fill="#D580FF"/>
<path d="M36 82.2222V70L27 85.7778H36V98L45 82.2222H36Z" fill="#D580FF"/>
<path d="M57 91.2222V79L48 94.7778H57V107L66 91.2222H57Z" fill="#D580FF"/>
<path fill-rule="evenodd" clip-rule="evenodd" d="M78.0001 79V70L72.8663 79H78.0001ZM36.0001 79V70L31.0513 78.6757C32.0215 78.8881 33.029 79 34.0626 79H36.0001Z" fill="#9966FF"/>
<path d="M45.2308 100.648C43.8769 105.273 41 106.522 41 109.782C41 112.667 43.274 115 46.0769 115C48.8798 115 51.1538 112.667 51.1538 109.782C51.1538 106.512 48.2769 105.293 46.9231 100.648C46.6904 99.8048 45.4952 99.7632 45.2308 100.648Z" fill="#D580FF"/>
<path d="M67.2308 100.648C65.8769 105.273 63 106.522 63 109.782C63 112.667 65.274 115 68.0769 115C70.8798 115 73.1538 112.667 73.1538 109.782C73.1538 106.512 70.2769 105.293 68.9231 100.648C68.6904 99.8048 67.4952 99.7632 67.2308 100.648Z" fill="#D580FF"/>
</svg>

<svg width="120" height="120" fill="none" xmlns="http://www.w3.org/2000/svg"><path fill-rule="evenodd" clip-rule="evenodd" d="M58 17.736c7.427 3.949 12.484 11.766 12.484 20.764S65.427 55.315 58 59.264A23.397 23.397 0 0 0 69.016 62c12.978 0 23.5-10.521 23.5-23.5S81.994 15 69.016 15c-3.981 0-7.73.99-11.016 2.736Z" fill="#D580FF"/><path d="M83.188 49.6c-.093 0-.17.03-.247.03.17-.796.246-1.623.246-2.48 0-6.768-5.523-12.25-12.343-12.25-3.796 0-7.144 1.73-9.412 4.41-2.87-5.513-8.595-9.31-15.276-9.31-9.55 0-17.281 7.672-17.281 17.15 0 1.118.123 2.19.324 3.246C23.289 52.326 19 57.792 19 64.3 19 72.416 25.635 79 33.813 79h49.374C91.365 79 98 72.416 98 64.3s-6.635-14.7-14.813-14.7Z" fill="#F9F"/><path fill-rule="evenodd" clip-rule="evenodd" d="M89.046 50.796a14.853 14.853 0 0 0-5.859-1.196c-.048 0-.092.008-.134.016a.608.608 0 0 1-.112.015c.17-.797.246-1.623.246-2.481 0-6.768-5.523-12.25-12.343-12.25-.212 0-.422.005-.631.016.179 1.169.271 2.366.271 3.584 0 8.998-5.057 16.815-12.484 20.764A23.397 23.397 0 0 0 69.016 62c8.47 0 15.895-4.482 20.03-11.204Z" fill="#96F"/><path d="M78 82.222V70l-9 15.778h9V98l9-15.778h-9ZM36 82.222V70l-9 15.778h9V98l9-15.778h-9ZM57 91.222V79l-9 15.778h9V107l9-15.778h-9Z" fill="#D580FF"/><path fill-rule="evenodd" clip-rule="evenodd" d="M78 79v-9l-5.134 9H78Zm-42 0v-9l-4.949 8.676c.97.212 1.978.324 3.012.324H36Z" fill="#96F"/><path d="M45.23 100.648c-1.353 4.625-4.23 5.874-4.23 9.134 0 2.885 2.274 5.218 5.077 5.218s5.077-2.333 5.077-5.218c0-3.27-2.877-4.489-4.23-9.134-.234-.843-1.429-.885-1.693 0ZM67.23 100.648c-1.353 4.625-4.23 5.874-4.23 9.134 0 2.885 2.274 5.218 5.077 5.218s5.077-2.333 5.077-5.218c0-3.27-2.877-4.489-4.23-9.134-.234-.843-1.429-.885-1.693 0Z" fill="#D580FF"/></svg>
